X: 25
T: Miss Fredericks Minuet
%R: minuet, waltz
B: Straight & Skillern "Minuets for the year 1777", p.25
F: http://www.vwml.org/browse/browse-collections-dance-tune-books/browse-straight1777
Z: 2014 John Chambers <jc:trillian.mit.edu>
M: 3/4
L: 1/8
K: G
% - - - - - - - - - - - - - - - - - - - - - - - - - - - - -
% Voice 1 formatted for a US-letter/A4 page size.
V: 1
|:\
G6 | d6 | g2B2c2 | d2Tc2B2 |\
e6 | f4g2 | edcBAG | {G}F2EFD2 |\
G6 | d6 | g2B2c2 | d2Tc2B2 |\
e6 | Tf4g2 |
(3({f}edc) B2A2 | HG6 :|\
B6 | ^c4d2 | efgfed | ^c2BcA2 |\
d6 | a6 | d'2f2g2 | a2Tg2f2 |\
b6 | T^c'4d'2 | {c'}ba/g/ f2e2 | "Da Capo"d6 |]
% - - - - - - - - - - - - - - - - - - - - - - - - - - - - -
% Voice 2 preserves the original staff breaks.
V: 2 clef=bass middle=d
|:\
g2f2e2 | d2c2B2 | G4A2 | B2A2G2 |\
c2B2A2 | d2c2B2 | c4^c2 | d4z2 |
g2f2e2 | d2c2B2 | G4A2 | B2A2G2 |\
c2B2A2 | d2c2B2 | c2d2D2 | HG2B2d2 :|\
g2f2e2 | a2g2f2 |
g4b2 | a4A2 |\
d'2^c'2b2 | a2g2f2 | d4e2 | f2e2d2 |\
g2f2e2 | a2g2f2 | g2a2A2 | d2A2"Da Capo"D2 |]
% - - - - - - - - - - - - - - - - - - - - - - - - - - - - -

%%sep 1 1 500
%%sep 1 1 500
